pictures/icons/design-thinking/brainstorm.svg

<?xml version="1.0" encoding="iso-8859-1"?>
<!-- Generator: Adobe Illustrator 19.0.0, SVG Export Plug-In . SVG Version: 6.00 Build 0)  -->
<svg version="1.1" id="Layer_1" xmlns="http://www.w3.org/2000/svg" xmlns:xlink="http://www.w3.org/1999/xlink" x="0px" y="0px"
	 viewBox="0 0 296.429 296.429" style="enable-background:new 0 0 296.429 296.429;" xml:space="preserve">
<g>
	<g>
		<g>
			<path d="M277.381,48.81V15.476l11.429,8.571l5.714-7.619L272.619,0l-21.905,16.429l5.714,7.619l11.429-8.571V48.81
				c0,13.129-10.681,23.81-23.81,23.81H225c-15.067,0-27.814,9.524-31.929,23.81h-6.819l-0.176,9.524h5.59v14.843
				c-2.338-0.333-4.71-0.557-7.143-0.557c-11.076,0-21.724,3.7-30.467,10.51c-6.252-6.652-15.01-10.51-24.295-10.51
				c-3.262,0-6.462,0.519-9.524,1.438v-30.01c0-15.757-12.814-28.571-28.571-28.571h-4.762v-9.524H77.38v9.524H63.095
				c-15.757,0-28.571,12.814-28.571,28.571v9.524c0,5.252-4.271,9.524-9.524,9.524h-9.524l8.571-11.429l-7.619-5.714L0,115.476
				l16.429,21.905l7.619-5.714l-8.571-11.429H25c10.505,0,19.048-8.543,19.048-19.048v-9.524c0-10.505,8.543-19.048,19.048-19.048
				h28.571c10.505,0,19.048,8.543,19.048,19.048v34.619c-2.071,1.448-4,3.11-5.714,5.014c-3.586-1.024-7.262-1.538-10.952-1.538
				c-20.429,0-37.386,15.105-40.062,34.995C36.995,169.781,25,185.567,25,203.571c0,8.429,2.652,16.662,7.519,23.49
				c-1.833,4.681-2.757,9.581-2.757,14.605c0,22.319,18.157,40.476,40.476,40.476c1.805,0,3.571-0.162,5.314-0.39
				c0.329-0.043,0.657-0.1,0.986-0.152c1.762-0.276,3.495-0.643,5.181-1.143c6.548,4.229,14.048,6.448,21.852,6.448
				c8.729,0,17.043-2.748,23.943-7.838c7.505,10.838,19.757,17.362,33.2,17.362c12.486,0,23.986-5.629,31.633-15.271
				c6.262,3.776,13.343,5.748,20.748,5.748c22.319,0,40.476-18.157,40.476-40.476c0-4.819-0.852-9.524-2.533-14.029
				c7.7-7.59,12.057-17.91,12.057-28.829c0-2.429-0.238-4.814-0.657-7.143h0.657v-9.524h-3.638
				c-4.771-10.486-13.886-18.729-25.276-22.119c-2.095-19.519-15.233-35.438-32.99-41.676v-17.157
				c0-13.129,10.681-23.81,23.81-23.81h19.048C262.424,82.143,277.381,67.186,277.381,48.81z M224.919,168.748l0.133,3.757
				l3.686,0.738c8.567,1.719,15.667,6.981,20.067,14.024v9.162h3.814c0.562,2.314,0.952,4.686,0.952,7.143
				c0,7.562-2.767,14.714-7.662,20.314c-6.848-9.429-17.69-15.195-30.124-16.019l-0.624,8.91
				c15.819,1.043,28.257,12.452,28.829,30.729c-0.571,16.567-14.19,29.876-30.895,29.876c-6.933,0-13.51-2.271-19.014-6.567
				l-1.9-1.486c-5.867-5.343-9.467-12.752-10.005-20.838l-9.505,0.633c0.671,10.081,5.033,19.343,12.105,26.243
				c-5.848,7.29-14.586,11.538-24.062,11.538c-11.824,0-22.448-6.61-27.714-17.252l-2.933-5.919l-4.69,4.662
				c-5.838,5.79-13.581,8.986-21.805,8.986c-3.767,0-7.414-0.752-10.876-2.067c10.857-7.267,18.019-19.633,18.019-33.648
				c0-1.014-0.133-2-0.205-3c7.576-1.314,14.657-4.743,20.405-10.014l-6.438-7.024c-4.438,4.067-9.905,6.695-15.762,7.676
				c-3.186-9.943-10.081-18.443-19.643-23.481l-4.438,8.429c10.214,5.386,16.557,15.886,16.557,27.414
				c0,13.362-8.529,24.738-20.414,29.067c-1.676,0.605-3.376,1.062-5.086,1.376c-0.114,0.019-0.229,0.033-0.343,0.052
				c-1.7,0.29-3.405,0.457-5.11,0.457c-17.067,0-30.952-13.886-30.952-30.952c0-4.581,1.014-9.033,3.014-13.248l1.305-2.743
				l-1.943-2.343c-4.605-5.543-7.138-12.557-7.138-19.762c0-14.695,10.443-27.457,24.829-30.343l3.652-0.729l0.171-3.714
				c0.486-10.41,6.038-19.39,14.205-24.624v9.41h9.524v-13.424c2.295-0.543,4.681-0.862,7.143-0.862
				c3.681,0,7.352,0.681,10.895,2.019l3.405,1.286l2.133-2.943c0.071-0.1,0.157-0.186,0.233-0.286v23.733h9.524v-31.276
				c2.976-1.314,6.205-2.057,9.524-2.057c6.59,0,12.786,2.748,17.243,7.452c-7.981,9.081-13.671,20.838-13.671,33.024
				c0,27.571,25,50,48.81,50v-9.524c-19.048,0-39.286-18.157-39.286-40.476c0-9.938,4.286-19.529,10.838-26.905l2.729-2.319
				c7.6-7.257,17.624-11.252,27.952-11.252c2.443,0,4.971,0.243,7.29,0.657v18.39c0,13.129-10.681,23.81-23.81,23.81h-4.762v9.524
				h4.762c18.376,0,33.333-14.957,33.333-33.333v-15.448C214.767,139.481,224.338,152.843,224.919,168.748z"/>
			<rect x="220.238" y="186.905" width="14.286" height="9.524"/>
			<rect x="244.048" y="96.429" width="14.286" height="9.524"/>
			<path d="M170.176,101.424l4.8-8.224c-3.438-2.01-6.352-4.867-8.429-8.271l-8.129,4.957
				C161.314,94.633,165.376,98.624,170.176,101.424z"/>
			<path d="M153.57,72.619L153.57,72.619c0.001,0.495,0.011,0.99,0.034,1.486l9.514-1.057l-0.024-14.714h-9.524V72.619z"/>
			<rect x="153.571" y="29.762" width="9.524" height="14.286"/>
			<path d="M274.49,183.981l4.586,8.343c4.867-2.676,9.033-6.562,12.052-11.233l-8.01-5.162
				C280.962,179.271,277.976,182.057,274.49,183.981z"/>
			<path d="M286.905,163.095c0,0.562-0.019,1.119-0.062,1.681l9.505,0.662c0.052-0.776,0.081-1.557,0.081-2.343V148.81h-9.524
				V163.095z"/>
			<rect x="215.476" y="96.429" width="14.286" height="9.524"/>
			<path d="M295.276,121.095l-9.19,2.481c0.543,2.014,0.819,4.095,0.819,6.186v4.762h9.524v-4.762
				C296.429,126.833,296.043,123.914,295.276,121.095z"/>
			<path d="M287.162,106.743c-3.857-4.033-8.686-7.057-13.971-8.748l-2.9,9.067c3.771,1.21,7.229,3.376,9.99,6.262L287.162,106.743z
				"/>
			<polygon points="153.571,15.476 163.095,15.476 174.524,24.048 180.238,16.429 158.333,0 136.429,16.429 142.143,24.048 			"/>
			<rect x="77.381" y="25" width="9.524" height="14.286"/>
			<rect x="77.381" y="110.714" width="9.524" height="14.286"/>
			<rect x="77.381" y="82.143" width="9.524" height="14.286"/>
			<rect x="77.381" y="167.857" width="9.524" height="14.286"/>
			<polygon points="82.143,11.905 98.333,24.048 104.048,16.429 82.143,0 60.238,16.429 65.952,24.048 			"/>
		</g>
	</g>
</g>
<g>
</g>
<g>
</g>
<g>
</g>
<g>
</g>
<g>
</g>
<g>
</g>
<g>
</g>
<g>
</g>
<g>
</g>
<g>
</g>
<g>
</g>
<g>
</g>
<g>
</g>
<g>
</g>
<g>
</g>
</svg>

<?xml version="1.0" encoding="UTF-8"?>
<svg width="297px" height="297px" viewBox="0 0 297 297" version="1.1" xmlns="http://www.w3.org/2000/svg" xmlns:xlink="http://www.w3.org/1999/xlink">
    <!-- Generator: Sketch 49.1 (51147) - http://www.bohemiancoding.com/sketch -->
    <title>brainstorm</title>
    <desc>Created with Sketch.</desc>
    <defs></defs>
    <g id="Page-1" stroke="none" stroke-width="1" fill="none" fill-rule="evenodd">
        <g id="brainstorm" fill="#000000" fill-rule="nonzero">
            <path d="M277.381,48.81 L277.381,15.476 L288.81,24.047 L294.524,16.428 L272.619,0 L250.714,16.429 L256.428,24.048 L267.857,15.477 L267.857,48.81 C267.857,61.939 257.176,72.62 244.047,72.62 L225,72.62 C209.933,72.62 197.186,82.144 193.071,96.43 L186.252,96.43 L186.076,105.954 L191.666,105.954 L191.666,120.797 C189.328,120.464 186.956,120.24 184.523,120.24 C173.447,120.24 162.799,123.94 154.056,130.75 C147.804,124.098 139.046,120.24 129.761,120.24 C126.499,120.24 123.299,120.759 120.237,121.678 L120.237,91.668 C120.237,75.911 107.423,63.097 91.666,63.097 L86.904,63.097 L86.904,53.573 L77.38,53.573 L77.38,63.097 L63.095,63.097 C47.338,63.097 34.524,75.911 34.524,91.668 L34.524,101.192 C34.524,106.444 30.253,110.716 25,110.716 L15.476,110.716 L24.047,99.287 L16.428,93.573 L0,115.476 L16.429,137.381 L24.048,131.667 L15.477,120.238 L25,120.238 C35.505,120.238 44.048,111.695 44.048,101.19 L44.048,91.666 C44.048,81.161 52.591,72.618 63.096,72.618 L91.667,72.618 C102.172,72.618 110.715,81.161 110.715,91.666 L110.715,126.285 C108.644,127.733 106.715,129.395 105.001,131.299 C101.415,130.275 97.739,129.761 94.049,129.761 C73.62,129.761 56.663,144.866 53.987,164.756 C36.995,169.781 25,185.567 25,203.571 C25,212 27.652,220.233 32.519,227.061 C30.686,231.742 29.762,236.642 29.762,241.666 C29.762,263.985 47.919,282.142 70.238,282.142 C72.043,282.142 73.809,281.98 75.552,281.752 C75.881,281.709 76.209,281.652 76.538,281.6 C78.3,281.324 80.033,280.957 81.719,280.457 C88.267,284.686 95.767,286.905 103.571,286.905 C112.3,286.905 120.614,284.157 127.514,279.067 C135.019,289.905 147.271,296.429 160.714,296.429 C173.2,296.429 184.7,290.8 192.347,281.158 C198.609,284.934 205.69,286.906 213.095,286.906 C235.414,286.906 253.571,268.749 253.571,246.43 C253.571,241.611 252.719,236.906 251.038,232.401 C258.738,224.811 263.095,214.491 263.095,203.572 C263.095,201.143 262.857,198.758 262.438,196.429 L263.095,196.429 L263.095,186.905 L259.457,186.905 C254.686,176.419 245.571,168.176 234.181,164.786 C232.086,145.267 218.948,129.348 201.191,123.11 L201.191,105.953 C201.191,92.824 211.872,82.143 225.001,82.143 L244.049,82.143 C262.424,82.143 277.381,67.186 277.381,48.81 Z M224.919,168.748 L225.052,172.505 L228.738,173.243 C237.305,174.962 244.405,180.224 248.805,187.267 L248.805,196.429 L252.619,196.429 C253.181,198.743 253.571,201.115 253.571,203.572 C253.571,211.134 250.804,218.286 245.909,223.886 C239.061,214.457 228.219,208.691 215.785,207.867 L215.161,216.777 C230.98,217.82 243.418,229.229 243.99,247.506 C243.419,264.073 229.8,277.382 213.095,277.382 C206.162,277.382 199.585,275.111 194.081,270.815 L192.181,269.329 C186.314,263.986 182.714,256.577 182.176,248.491 L172.671,249.124 C173.342,259.205 177.704,268.467 184.776,275.367 C178.928,282.657 170.19,286.905 160.714,286.905 C148.89,286.905 138.266,280.295 133,269.653 L130.067,263.734 L125.377,268.396 C119.539,274.186 111.796,277.382 103.572,277.382 C99.805,277.382 96.158,276.63 92.696,275.315 C103.553,268.048 110.715,255.682 110.715,241.667 C110.715,240.653 110.582,239.667 110.51,238.667 C118.086,237.353 125.167,233.924 130.915,228.653 L124.477,221.629 C120.039,225.696 114.572,228.324 108.715,229.305 C105.529,219.362 98.634,210.862 89.072,205.824 L84.634,214.253 C94.848,219.639 101.191,230.139 101.191,241.667 C101.191,255.029 92.662,266.405 80.777,270.734 C79.101,271.339 77.401,271.796 75.691,272.11 C75.577,272.129 75.462,272.143 75.348,272.162 C73.648,272.452 71.943,272.619 70.238,272.619 C53.171,272.619 39.286,258.733 39.286,241.667 C39.286,237.086 40.3,232.634 42.3,228.419 L43.605,225.676 L41.662,223.333 C37.057,217.79 34.524,210.776 34.524,203.571 C34.524,188.876 44.967,176.114 59.353,173.228 L63.005,172.499 L63.176,168.785 C63.662,158.375 69.214,149.395 77.381,144.161 L77.381,153.571 L86.905,153.571 L86.905,140.147 C89.2,139.604 91.586,139.285 94.048,139.285 C97.729,139.285 101.4,139.966 104.943,141.304 L108.348,142.59 L110.481,139.647 C110.552,139.547 110.638,139.461 110.714,139.361 L110.714,163.094 L120.238,163.094 L120.238,131.818 C123.214,130.504 126.443,129.761 129.762,129.761 C136.352,129.761 142.548,132.509 147.005,137.213 C139.024,146.294 133.334,158.051 133.334,170.237 C133.334,197.808 158.334,220.237 182.144,220.237 L182.144,210.713 C163.096,210.713 142.858,192.556 142.858,170.237 C142.858,160.299 147.144,150.708 153.696,143.332 L156.425,141.013 C164.025,133.756 174.049,129.761 184.377,129.761 C186.82,129.761 189.348,130.004 191.667,130.418 L191.667,148.808 C191.667,161.937 180.986,172.618 167.857,172.618 L163.095,172.618 L163.095,182.142 L167.857,182.142 C186.233,182.142 201.19,167.185 201.19,148.809 L201.19,133.361 C214.767,139.481 224.338,152.843 224.919,168.748 Z" id="Shape"></path>
            <rect id="Rectangle-path" x="220.238" y="186.905" width="14.286" height="9.524"></rect>
            <rect id="Rectangle-path" x="244.048" y="96.429" width="14.286" height="9.524"></rect>
            <path d="M170.176,101.424 L174.976,93.2 C171.538,91.19 168.624,88.333 166.547,84.929 L158.418,89.886 C161.314,94.633 165.376,98.624 170.176,101.424 Z" id="Shape"></path>
            <path d="M153.57,72.619 C153.571,73.114 153.581,73.609 153.604,74.105 L163.118,73.048 L163.094,58.334 L153.57,58.334 L153.57,72.619 Z" id="Shape"></path>
            <rect id="Rectangle-path" x="153.571" y="29.762" width="9.524" height="14.286"></rect>
            <path d="M274.49,183.981 L279.076,192.324 C283.943,189.648 288.109,185.762 291.128,181.091 L283.118,175.929 C280.962,179.271 277.976,182.057 274.49,183.981 Z" id="Shape"></path>
            <path d="M286.905,163.095 C286.905,163.657 286.886,164.214 286.843,164.776 L296.348,165.438 C296.4,164.662 296.429,163.881 296.429,163.095 L296.429,148.81 L286.905,148.81 L286.905,163.095 Z" id="Shape"></path>
            <rect id="Rectangle-path" x="215.476" y="96.429" width="14.286" height="9.524"></rect>
            <path d="M295.276,121.095 L286.086,123.576 C286.629,125.59 286.905,127.671 286.905,129.762 L286.905,134.524 L296.429,134.524 L296.429,129.762 C296.429,126.833 296.043,123.914 295.276,121.095 Z" id="Shape"></path>
            <path d="M287.162,106.743 C283.305,102.71 278.476,99.686 273.191,97.995 L270.291,107.062 C274.062,108.272 277.52,110.438 280.281,113.324 L287.162,106.743 Z" id="Shape"></path>
            <polygon id="Shape" points="153.571 15.476 163.095 15.476 174.524 24.048 180.238 16.429 158.333 0 136.429 16.429 142.143 24.048"></polygon>
            <rect id="Rectangle-path" x="77.381" y="25" width="9.524" height="14.286"></rect>
            <rect id="Rectangle-path" x="77.381" y="110.714" width="9.524" height="14.286"></rect>
            <rect id="Rectangle-path" x="77.381" y="82.143" width="9.524" height="14.286"></rect>
            <rect id="Rectangle-path" x="77.381" y="167.857" width="9.524" height="14.286"></rect>
            <polygon id="Shape" points="82.143 21.905 98.333 34.048 104.048 26.429 82.143 10 60.238 26.429 65.952 34.048"></polygon>
        </g>
    </g>
</svg>
